X: 10671
M: 6/8
L: 1/8
K: D
[|\
[|\
dfd ecA | BdB AFD | faf ecA | B2c d2z |\
faf ecA | BdB AFD | DFA AFA | B2c d2z |]


